svgs/sharp-light/sd-cards.svg

<svg xmlns="http://www.w3.org/2000/svg" viewBox="0 0 448 512"><!--! Font Awesome Pro 6.6.0 by @fontawesome - https://fontawesome.com License - https://fontawesome.com/license (Commercial License) Copyright 2024 Fonticons, Inc. --><path d="M416 400l-304 0 0-258.7L221.3 32 416 32l0 368zM80 128l0 272 0 32 32 0 304 0 32 0 0-32 0-368 0-32L416 0 208 0 80 128zM256 64l-32 0 0 16 0 64 0 16 32 0 0-16 0-64 0-16zm64 0l-32 0 0 16 0 64 0 16 32 0 0-16 0-64 0-16zm64 0l-32 0 0 16 0 64 0 16 32 0 0-16 0-64 0-16zM32 112l0-16L0 96l0 16L0 496l0 16 16 0 352 0 16 0 0-32-16 0L32 480l0-368z"/></svg>

<svg xmlns="http://www.w3.org/2000/svg" viewBox="0 0 448 512"><!--! Font Awesome Pro 6.5.2 by @fontawesome - https://fontawesome.com License - https://fontawesome.com/license (Commercial License) Copyright 2024 Fonticons, Inc. --><path d="M416 400H112V141.3L221.3 32H416V400zM80 128V400v32h32H416h32V400 32 0H416 208L80 128zM256 64H224V80v64 16h32V144 80 64zm64 0H288V80v64 16h32V144 80 64zm64 0H352V80v64 16h32V144 80 64zM32 112V96H0v16V496v16H16 368h16V480H368 32V112z"/></svg>
